pix/e/screenreader_helper.svg

<!DOCTYPE svg PUBLIC "-//W3C//DTD SVG 1.1//EN" "http://www.w3.org/Graphics/SVG/1.1/DTD/svg11.dtd" [
	<!ENTITY ns_flows "http://ns.adobe.com/Flows/1.0/">
]><svg xmlns="http://www.w3.org/2000/svg" width="16" height="16" viewBox="-1.6 -0.1 16 16" preserveAspectRatio="xMinYMid meet" overflow="visible"><path d="M13.1 9.2c-.9 2.6-4.9 4.1-4.9 4.1-.5.2-1.2 1.3-1.2 1.3s-1 1.5-1.5 1.3c0 0-.7-.1-1.9-.5s-1.8-.8-1.8-.8c-.5-.2-.3-2-.3-2v-.7h1v1.9c.2.1.7.4 1.5.6.7.3 1.3.4 1.5.4.2-.2.5-.5.7-.9.3-.5 1-1.4 1.7-1.7 1-.4 3.7-1.8 4.3-3.6 1.1-3-.5-6.4-3.5-7.5-3-1.1-6.4.5-7.5 3.5-.1.6-.2.9-.2 1.3H0c0-.5.1-1 .2-1.4C1.5 1 5.5-.9 9 .4c3.6 1.3 5.4 5.2 4.1 8.8zM8 3.2c-1.8-.6-3.7.1-4.7 1.7h1.2c.6-.5 1.4-.9 2.2-.9.3 0 .7.1 1 .2.7.2 1.2.8 1.5 1.4.3.7.4 1.5.1 2.2-.1.4-1.5 1.4-2.6 1.8-.4.2-.9.4-1.3.8v1.4c.6-.6 1.1-1 1.7-1.2 1.1-.5 2.9-1.6 3.2-2.4.7-2-.3-4.2-2.3-5z" fill="#989898"/></svg>

<?xml version="1.0" encoding="utf-8"?>
<!-- Generator: Adobe Illustrator 15.1.0, SVG Export Plug-In  -->
<!DOCTYPE svg PUBLIC "-//W3C//DTD SVG 1.1//EN" "http://www.w3.org/Graphics/SVG/1.1/DTD/svg11.dtd" [
	<!ENTITY ns_flows "http://ns.adobe.com/Flows/1.0/">
]>
<svg version="1.1"
	 xmlns="http://www.w3.org/2000/svg" xmlns:xlink="http://www.w3.org/1999/xlink" xmlns:a="http://ns.adobe.com/AdobeSVGViewerExtensions/3.0/"
	 x="0px" y="0px" width="16px" height="16px" viewBox="-1.6 -0.1 16 16"
	 style="overflow:visible;enable-background:new -1.6 -0.1 16 16;" xml:space="preserve" preserveAspectRatio="xMinYMid meet">
<defs>
</defs>
<path style="fill:#989898;" d="M13.1,9.2c-0.9,2.6-4.9,4.1-4.9,4.1C7.7,13.5,7,14.6,7,14.6s-1,1.5-1.5,1.3c0,0-0.7-0.1-1.9-0.5
	c-1.2-0.4-1.8-0.8-1.8-0.8c-0.5-0.2-0.3-2-0.3-2s0-0.3,0-0.7h1c0,0.3,0,0.6,0,0.8c0,0.4,0,0.9,0,1.1c0.2,0.1,0.7,0.4,1.5,0.6
	c0.7,0.3,1.3,0.4,1.5,0.4c0.2-0.2,0.5-0.5,0.7-0.9c0.3-0.5,1-1.4,1.7-1.7c1-0.4,3.7-1.8,4.3-3.6c1.1-3-0.5-6.4-3.5-7.5
	c-3-1.1-6.4,0.5-7.5,3.5C1.1,5.2,1,5.5,1,5.9H0c0-0.5,0.1-1,0.2-1.4C1.5,1,5.5-0.9,9,0.4C12.6,1.7,14.4,5.6,13.1,9.2z M8,3.2
	C6.2,2.6,4.3,3.3,3.3,4.9h1.2C5.1,4.4,5.9,4,6.7,4c0.3,0,0.7,0.1,1,0.2C8.4,4.4,8.9,5,9.2,5.6c0.3,0.7,0.4,1.5,0.1,2.2
	C9.2,8.2,7.8,9.2,6.7,9.6c-0.4,0.2-0.9,0.4-1.3,0.8v1.4c0.6-0.6,1.1-1,1.7-1.2C8.2,10.1,10,9,10.3,8.2C11,6.2,10,4,8,3.2z"/>
</svg>
